client/public/img/game/shared/residues/toilet_residue.svg

<?xml version="1.0" encoding="UTF-8" standalone="no"?>
<svg
   width="89"
   height="101"
   viewBox="0 0 89 101"
   fill="none"
   version="1.1"
   id="svg6"
   xmlns="http://www.w3.org/2000/svg"
   xmlns:svg="http://www.w3.org/2000/svg">
  <defs
     id="defs6" />
  <path
     opacity="0.6"
     d="M60.1395 13.318C62.6791 13.1576 65.2463 13.8484 67.433 15.15C69.6197 16.4515 71.4298 18.3474 72.7454 20.5256C75.3767 24.882 75.9894 30.2204 75.4333 35.2793C74.8307 40.7607 72.9514 46.0207 72.0141 51.4548C71.5454 54.1719 71.3137 56.9478 71.6034 59.6897C71.8931 62.4316 72.7214 65.1464 74.2458 67.4439C76.2429 70.4538 79.2869 72.573 82.0169 74.9383C83.382 76.121 84.6891 77.388 85.743 78.8548C86.7968 80.3215 87.5931 82.0022 87.8505 83.7898C88.0932 85.4763 87.8429 87.2322 87.1286 88.7792C86.4144 90.3262 85.2379 91.6577 83.7852 92.5481C81.8114 93.758 79.4046 94.1238 77.0974 93.9322C74.7902 93.7406 72.5589 93.025 70.3959 92.1997C68.233 91.3743 66.1105 90.4329 63.8955 89.7593C61.6806 89.0858 59.3438 88.6837 57.0468 88.9727C54.5504 89.2868 52.2194 90.401 50.0889 91.7397C47.9585 93.0783 45.984 94.6516 43.87 96.0161C41.756 97.3806 39.4589 98.5491 36.9756 98.9542C35.7339 99.1568 34.4548 99.1637 33.2226 98.9102C31.9903 98.6567 30.8058 98.1384 29.8224 97.3538C28.7735 96.5171 27.9702 95.3904 27.4512 94.1531C26.9322 92.9158 26.6919 91.5704 26.6744 90.2287C26.6392 87.5455 27.4788 84.9239 28.5413 82.4596C29.6037 79.9954 30.8975 77.6313 31.85 75.1226C32.8025 72.6138 33.4095 69.9012 33.0201 67.2461C32.5227 63.8552 30.4242 60.8553 27.7977 58.6537C25.1712 56.4521 22.0338 54.9573 18.8863 53.6011C15.7389 52.2449 12.5253 50.994 9.60857 49.1944C6.69187 47.3948 4.04753 44.978 2.60255 41.8703C1.62654 39.7712 1.23392 37.4264 1.29644 35.1124C1.35896 32.7983 1.86596 30.5111 2.61938 28.3222C4.12623 23.9444 6.59376 19.974 8.67913 15.8404C9.96381 13.2939 11.1137 10.6653 12.6991 8.29441C14.2846 5.92348 16.3687 3.78677 19.003 2.69359C20.6483 2.01087 22.46 1.75969 24.2369 1.88423C26.0139 2.00876 27.7562 2.50307 29.3719 3.25289C32.6035 4.75252 35.2861 7.23546 37.5911 9.95179C38.5642 11.0984 39.4823 12.2955 40.5432 13.3614C41.6041 14.4273 42.8266 15.3686 44.2387 15.8859C45.5198 16.3552 46.915 16.4583 48.2734 16.3312C49.6318 16.2041 50.9599 15.8532 52.2589 15.4364C54.8571 14.6027 57.4163 13.4899 60.1395 13.318Z"
     fill="#5081D7"
     stroke="#2354B3"
     stroke-width="2"
     id="path1" />
  <path
     d="M22.624 5.12695L19.5364 19.4943L8.51172 29.5702L19.5834 32.2841L23.5146 36.5767L32.9549 43.6825L31.2506 36.1853L35.7124 32.7893L37.1609 26.1358L47.0673 19.2393L39.7188 17.0219L25.894 19.2835L22.624 5.12695Z"
     fill="#E5E0DB"
     stroke="#272727"
     stroke-width="2"
     stroke-linecap="round"
     id="path2" />
  <path
     d="M20.5586 72.2766L27.3621 78.1387L33.5866 83.7871L33.5552 89.9868L34.6708 96.7198L39.6541 87.273L49.3919 85.0339L59.114 82.6075L51.9171 80.06L47.1907 77.7955L47.8188 72.981L45.4036 68.8252L39.4063 66.3203L37.8168 70.993L30.6471 70.0513L29.9965 73.7331L26.6174 72.892L23.6149 70.5119L20.5586 72.2766Z"
     fill="#E5E0DB"
     stroke="#272727"
     stroke-width="2"
     stroke-linecap="round"
     id="path3" />
  <path
     d="M56.0459 49.1667L72.5427 58.6911L69.8245 54.7312L75.6453 51.7274L77.8438 43.7163L82.0671 42.1943L65.5703 32.6699L68.8682 37.8757L63.2331 40.9641L62.3914 48.9377L56.0459 49.1667Z"
     fill="#E5E0DB"
     stroke="#272727"
     stroke-width="2"
     stroke-linecap="round"
     id="path4" />
  <path
     opacity="0.6"
     d="M18.592 67.1781C20.5202 67.1781 22.0833 65.6149 22.0833 63.6867C22.0833 61.7585 20.5202 60.1953 18.592 60.1953C16.6637 60.1953 15.1006 61.7585 15.1006 63.6867C15.1006 65.6149 16.6637 67.1781 18.592 67.1781Z"
     fill="#5081D7"
     stroke="#2354B3"
     stroke-width="2"
     stroke-linecap="round"
     id="path5" />
  <path
     opacity="0.6"
     d="M56.1453 9.589C54.789 10.5755 53.3142 11.4168 51.7226 11.9457C50.131 12.4746 48.4167 12.6831 46.7621 12.4091C45.1075 12.135 43.5176 11.36 42.3809 10.1268C41.2442 8.89366 40.5932 7.19143 40.7509 5.52173C40.8704 4.25659 41.4638 3.02492 42.4415 2.21325C42.9304 1.80741 43.5095 1.50865 44.1266 1.35754C44.7438 1.20643 45.3983 1.20429 46.0135 1.36344C46.8764 1.58666 47.6253 2.10909 48.3709 2.59748C49.1164 3.08587 49.9097 3.56068 50.7946 3.66693C51.3949 3.739 52.0048 3.63556 52.5841 3.46246C53.1635 3.28935 53.7195 3.04748 54.2851 2.83387C54.8508 2.62025 55.4329 2.43335 56.035 2.37738C56.637 2.3214 57.265 2.40383 57.7913 2.70166C58.4055 3.049 58.8403 3.67485 59.0156 4.35826C59.191 5.04167 59.119 5.77574 58.877 6.43849C58.393 7.76397 57.2865 8.75901 56.1453 9.589Z"
     fill="#5081D7"
     stroke="#2354B3"
     stroke-width="2"
     id="path6" />
</svg>

<svg xmlns="http://www.w3.org/2000/svg" width="89" height="101" fill="none"><path fill="#5081D7" stroke="#2354B3" stroke-width="2" d="M60.14 13.318c2.54-.16 5.106.53 7.293 1.832 2.187 1.301 3.997 3.197 5.312 5.376 2.632 4.356 3.244 9.694 2.688 14.753-.602 5.482-2.482 10.742-3.419 16.176-.469 2.717-.7 5.493-.41 8.235s1.117 5.456 2.642 7.754c1.997 3.01 5.04 5.129 7.77 7.494 1.366 1.183 2.673 2.45 3.727 3.917s1.85 3.147 2.108 4.935a8.94 8.94 0 0 1-.722 4.99 8.75 8.75 0 0 1-3.344 3.768c-1.974 1.21-4.38 1.576-6.688 1.384-2.307-.191-4.538-.907-6.701-1.732-2.163-.826-4.285-1.767-6.5-2.44-2.215-.674-4.552-1.076-6.85-.787-2.496.314-4.827 1.428-6.957 2.767s-4.105 2.912-6.219 4.276c-2.114 1.365-4.411 2.533-6.894 2.938-1.242.203-2.521.21-3.753-.044-1.233-.253-2.417-.772-3.4-1.556-1.05-.837-1.853-1.964-2.372-3.2-.519-1.238-.76-2.584-.777-3.925-.035-2.683.805-5.305 1.867-7.77 1.063-2.464 2.357-4.828 3.309-7.336.953-2.51 1.56-5.222 1.17-7.877-.497-3.39-2.596-6.39-5.222-8.592s-5.764-3.697-8.912-5.053c-3.147-1.356-6.36-2.607-9.277-4.407s-5.561-4.216-7.006-7.324c-.976-2.099-1.37-4.444-1.307-6.758s.57-4.6 1.323-6.79c1.507-4.378 3.975-8.348 6.06-12.482 1.285-2.546 2.435-5.175 4.02-7.546 1.586-2.37 3.67-4.507 6.304-5.6 1.645-.683 3.457-.934 5.234-.81 1.777.125 3.52.62 5.135 1.369 3.231 1.5 5.914 3.982 8.22 6.699.972 1.146 1.89 2.344 2.951 3.41 1.061 1.065 2.284 2.007 3.696 2.524 1.28.47 2.676.572 4.034.445 1.359-.127 2.687-.478 3.986-.895 2.598-.833 5.157-1.946 7.88-2.118Z" opacity=".6"/><path fill="#E5E0DB" stroke="#272727" stroke-linecap="round" stroke-width="2" d="m22.624 5.127-3.088 14.367L8.512 29.57l11.071 2.714 3.932 4.293 9.44 7.105-1.704-7.497 4.461-3.396 1.449-6.653 9.906-6.897-7.348-2.217-13.825 2.262zM20.559 72.277l6.803 5.862 6.225 5.648-.032 6.2 1.116 6.733 4.983-9.447 9.738-2.24 9.722-2.425-7.197-2.548-4.726-2.264.628-4.815-2.415-4.156-5.998-2.505-1.59 4.673-7.169-.942-.65 3.682-3.38-.841-3.002-2.38zM56.046 49.167l16.497 9.524-2.719-3.96 5.821-3.004 2.199-8.01 4.223-1.523L65.57 32.67l3.298 5.206-5.635 3.088-.842 7.974z"/><path fill="#5081D7" stroke="#2354B3" stroke-linecap="round" stroke-width="2" d="M18.592 67.178a3.491 3.491 0 1 0 0-6.983 3.491 3.491 0 0 0 0 6.983Z" opacity=".6"/><path fill="#5081D7" stroke="#2354B3" stroke-width="2" d="M56.145 9.589c-1.356.986-2.83 1.828-4.422 2.357s-3.306.737-4.96.463c-1.655-.274-3.245-1.049-4.382-2.282s-1.788-2.936-1.63-4.605c.12-1.265.713-2.497 1.69-3.309a4.2 4.2 0 0 1 1.686-.855 3.9 3.9 0 0 1 1.886.005c.863.224 1.612.746 2.358 1.234.745.489 1.539.964 2.424 1.07.6.072 1.21-.031 1.79-.205.578-.173 1.134-.415 1.7-.628s1.148-.4 1.75-.457 1.23.027 1.756.325c.615.347 1.05.973 1.225 1.656.175.684.103 1.418-.139 2.08-.484 1.326-1.59 2.321-2.732 3.151Z" opacity=".6"/></svg>
